!!!COM: Palestrina, Giovanni Perluigi da
!!!OPR: Pater noster
!!!OTL: Agnus I
**kern	**kern	**kern	**kern
*Ibass	*Itenor	*Icalto	*Icant
!Bassus	!Tenor	!Altus	!Cantus
*clefF4	*clefGv2	*clefG2	*clefG2
*k[]	*k[]	*k[]	*k[]
*D:dor	*D:dor	*D:dor	*D:dor
*M4/2	*M4/2	*M4/2	*M4/2
=1	=1	=1	=1
1.c	0r	0r	0r
2B	.	.	.
=2	=2	=2	=2
2A	0c	0r	0r
4F	.	.	.
4G	.	.	.
4A	.	.	.
4B	.	.	.
[2c	.	.	.
=3	=3	=3	=3
2c]	1d	1r	0r
2B	.	.	.
2.c	[1e	2r	.
.	.	[2cc	.
4B	.	.	.
=4	=4	=4	=4
2A	2e]	2cc]	1r
2G	2e	2b	.
[1F	[1f	2a	[1cc
.	.	4f	.
.	.	4g	.
=5	=5	=5	=5
2F]	2f]	4a	1cc]
.	.	4b	.
2C	2e	1cc	.
1G	1d	.	1dd
.	.	2b	.
=6	=6	=6	=6
2C	2.c	2.cc	1.ee
1c	.	.	.
.	4d	4b	.
.	1e	2a	.
2c	.	2g	2ee
=7	=7	=7	=7
1.d	4d	2f	1.ff
.	4e	.	.
.	4f	4d	.
.	4g	4e	.
.	2a	4f	.
.	.	4g	.
2c	2A	[2a	2ee
=8	=8	=8	=8
1B-	1d	2a]	1dd
.	.	2g	.
2A	1e	[1a	1cc#
[2A	.	.	.
=9	=9	=9	=9
2A]	1f	1a]	2r
2F	.	.	1dd
2G	1e	2r	.
2A	.	[2a	2cc
=10	=10	=10	=10
1B-	2r	2a]	2.dd
.	1d	2g	.
.	.	.	4ee
1A	.	2a	2ff
.	2c	2a	[2ee
=11	=11	=11	=11
1G	2.d	1b-	2ee]
.	.	.	1dd
.	4e	.	.
1A	2f	1a	.
.	[2e	.	2cc
=12	=12	=12	=12
0r	2e]	2g	1dd
.	1d	2f	.
.	.	2.e	1ee
.	2c#	.	.
.	.	8d	.
.	.	8e	.
=13	=13	=13	=13
0r	1d	4f	2dd
.	.	4g	.
.	.	1a	2cc
.	1e	.	1b
.	.	2g#	.
=14	=14	=14	=14
2r	1A	2.a	2a
1A	.	.	1cc
.	.	8g	.
.	.	8f	.
.	2r	2e	.
2G	[2d	2g	[2b
=15	=15	=15	=15
1A	2d]	2e	2b]
.	2c#	1f	1a
1B-	1d	.	.
.	.	4e	2g
.	.	4d	.
=16	=16	=16	=16
1A	1.e	2c	4a
.	.	.	4b
.	.	1cc	4cc
.	.	.	4dd
1G	.	.	4ee
.	.	.	4ff
.	[2d	[2b-	2gg
=17	=17	=17	=17
1A	2d]	4b-]	2ff
.	.	4a	.
.	2c	1a	2.ee
1B-	1d	.	.
.	.	.	4dd
.	.	2g	[2dd
=18	=18	=18	=18
1A	1e	2a	2dd]
.	.	1a	2cc#
[1D	[1d	.	2dd
.	.	2d	[2dd
=19	=19	=19	=19
1D]	1d]	1f	2dd]
.	.	.	2a
1r	1r	2e	2cc
.	.	[2d	2dd
=20	=20	=20	=20
1.A	1r	2d]	2.ee
.	.	4c#	.
.	.	4B	4dd
.	2r	2c#	2ee
2D	[2d	2d	[2ff
=21	=21	=21	=21
1F	2d]	1a	4ff]
.	.	.	4ee
.	2A	.	4cc
.	.	.	4dd
2E	2c	2r	2ee
[2D	2d	[2a	2ff
=22	=22	=22	=22
2D]	1e	2a]	1ee
2C#	.	2e	.
1D	2d	1f	2r
.	2d	.	[2a
=23	=23	=23	=23
0r	2A	1e	2a]
.	2c	.	2e
.	2B	2d	2g
.	[2A	2c	2a
=24	=24	=24	=24
0r	2A]	2B	1b
.	2G#	2e	.
.	1A	2e	2.cc
.	.	[2a	.
.	.	.	4a
=25	=25	=25	=25
0r	1e	2a]	1b
.	.	2g	.
.	2r	2.f	[1a
.	[2a	.	.
.	.	8e	.
.	.	8d	.
=26	=26	=26	=26
1.d	2a]	4f	1a]
.	.	4e	.
.	2d	4f	.
.	.	4g	.
.	1f	[1a	1r
2A	.	.	.
=27	=27	=27	=27
2c	2e	1a]	2r
2d	1d	.	1a
1e	.	1A	.
.	2c#	.	2e
=28	=28	=28	=28
2d	2d	1r	2f
2G	1d	.	2g
2D	.	2r	1a
4F	2A	[2a	.
4G	.	.	.
=29	=29	=29	=29
4A	2.c	2a]	2e
4B	.	.	.
2.c	.	2e	2.ee
.	4d	.	.
.	2e	2g	.
4B	.	.	4dd
2A	2f	2a	2cc
=30	=30	=30	=30
1G	2.g	1b-	4ee
.	.	.	4dd
.	.	.	1dd
.	4f	.	.
1A	1e	1a	.
.	.	.	2cc#
=31	=31	=31	=31
1D	0d	2.f	2dd
.	.	.	1a
.	.	4e	.
2r	.	4d	.
.	.	4e	.
[2d	.	4f	2d
.	.	4g	.
=32	=32	=32	=32
2d]	2r	1a	2.f
2D	1d	.	.
.	.	.	4g
2.F	.	2r	4a
.	.	.	4b
.	2A	[2a	[2cc
4G	.	.	.
=33	=33	=33	=33
4A	2.c	2a]	4cc]
4B	.	.	4dd
2.c	.	2e	1ee
.	4d	.	.
.	2e	2g	.
4B	.	.	.
2A	2f	2a	2cc
=34	=34	=34	=34
1G	2.g	1b-	4ee
.	.	.	4dd
.	.	.	1dd
.	4f	.	.
1A	1e	1a	.
.	.	.	2cc#
=35	=35	=35	=35
0D	0d	0a	0dd
==	==	==	==
*-	*-	*-	*-
!!!CDT: 1525/^1526/-1594/2/2
!!!OCY: Italia
!!!AGN: Mass (Paraphrase)
!!!AST: renaissance, vocal
!!!ASW: Prayer
!!!PWK: Masses, Book 10
!!!RNB: Cadence finals: A
!!!YOR: Le Opere Complete, v. 27, p. 199
!!!YOO: Rome, Italy: Fratelli Scalera
!!!END: 1992//
!!!EED: John Miller
!!!YEC: Copyright 2000, John Miller
!!!YEN: United States of America
!!!YEM: Rights to all derivative electronic formats reserved.
!!!YEM: Refer to licensing agreement for further details.
!!!YEM: This file must be accompanied by the licensing agreement.
!!!YEM: A copy of the licensing agreement may be found at http://www.music-cog.ohio-state.edu/HumdrumDatabases/Palestrina/license.txt
!!!EMD: converted to Humdrum by Bret Aarden
